src/main/resources/icons/JbpmIcons/icons/bpmn/gateways/DataBasedExclusive.svg

<svg xmlns="http://www.w3.org/2000/svg" width="16" height="16" viewBox="0 0 16 16">
  <path fill="#B99BF8" fill-opacity=".7" fill-rule="evenodd" d="M8,0.928932188 L15.0710678,8 L8,15.0710678 L0.928932188,8 L8,0.928932188 Z M8.70710725,8.00000047 L10.8284276,5.87868012 L10.1213208,5.17157334 L8.00000047,7.29289369 L5.87868012,5.17157334 L5.17157334,5.87868012 L7.29289369,8.00000047 L5.17157334,10.1213208 L5.87868012,10.8284276 L8.00000047,8.70710725 L10.1213208,10.8284276 L10.8284276,10.1213208 L8.70710725,8.00000047 Z"/>
</svg>

<svg xmlns="http://www.w3.org/2000/svg" width="16" height="16" viewBox="0 0 16 16"><rect id="frame" width="16" height="16" fill="none"/><path fill="#B99BF8" fill-opacity=".7" fill-rule="evenodd" d="M8 .929L15.071 8 8 15.071.929 8 8 .929zM8.707 8l2.121-2.121-.707-.707L8 7.292l-2.121-2.12-.707.707L7.292 8l-2.12 2.121.707.707L8 8.708l2.121 2.12.707-.707L8.708 8z"/></svg>
